X: 3
T:Countrodanso n°3
R:---
O:Val Varaita, Italie
M:2/4
L:1/8
K:G
GB/2c/2|:dd dc|BA Bc/2B/2|AG AA|BG GB/2c/2|dd dc|BA Bc/2B/2|AG AB| [1 G2 GB/2c/2 :| [2 G2
d2|:ed dc/2B/2|AG GF/2G/2|AG AB|dc cd|ed dc/2B/2|AG GF/2G/2|AG AB| [1 G2 d2 :| [2 G2 G2
|:cB c/2B/2c/2B/2|AG GA/2B/2|AG AB|dc cc|cB c/2B/2c/2B/2|AG GA/2B/2|AG AB| [1 dc cc :| [2 G2

%%footer $D   Galouvielle-MBe 2006 \n--- (Val Varaita, Italie)
